X: 9
T:Sally Gardens
M:C
L:1/8
C:from Bulmer and Sharpley
R:Reel
K:G
BA |: ~G2DG B2GB | dBeB dBAB | ~d2Bd egdB | AcBA GEDE |
| ~G2DG B2GB | dBeB dBAB | ~d2Bd egdB |1 AcBA GEED :|2 AcBA G2| 
|: Bc | dggf g2de | g2bg ageg | eaag a2eg |
| a2bg ageg | dggf g2de | g2bg ageg | ~d2Bd egdB | AcBA G2 :|
